themes/neoDark/static/svg/mail.svg

<svg viewBox="0 0 64 64" xmlns="http://www.w3.org/2000/svg"><g style="fill:none;stroke:#d25555;stroke-miterlimit:10;stroke-width:2;stroke-linejoin:round;stroke-linecap:round"><path d="m62 16h-38.4l-7.6 32h38.4z"/><path d="m23.6 16 14.9 22 23.5-22m-46 32 19.2-14.8m19.2 14.8-11.5-14.2"/><path d="m2 24h11.9m-11.9 8h10m-10 8h8"/></g></svg>

<svg xmlns="http://www.w3.org/2000/svg" viewBox="0 0 64 64" aria-labelledby="title"
aria-describedby="desc" role="img" xmlns:xlink="http://www.w3.org/1999/xlink">
  <title>Send Email</title>
  <desc>A line styled icon from Orion Icon Library.</desc>
  <path data-name="layer2"
  fill="none" stroke="#d25555" stroke-miterlimit="10" stroke-width="2" d="M62 16H23.6L16 48h38.4L62 16z"
  stroke-linejoin="round" stroke-linecap="round"></path>
  <path data-name="layer2" fill="none" stroke="#d25555" stroke-miterlimit="10"
  stroke-width="2" d="M23.6 16l14.9 22L62 16M16 48l19.2-14.8M54.4 48L42.9 33.8"
  stroke-linejoin="round" stroke-linecap="round"></path>
  <path data-name="layer1" fill="none" stroke="#d25555" stroke-miterlimit="10"
  stroke-width="2" d="M2 24h11.9M2 32h10M2 40h8" stroke-linejoin="round"
  stroke-linecap="round"></path>
</svg>
